nextgisweb/raster_mosaic/icon/resource/raster_mosaic.svg

<svg enable-background="new 0 0 16 16" version="1.1" viewBox="0 0 16 16" xmlns="http://www.w3.org/2000/svg">
<path d="M8,4H4V0h4V4z" fill="#DCE8F3"/>
<path d="m4 4h4v4h-4v-4z" fill="#106a90"/>
<path d="M4,8V4H0v4H4z" fill="#DCE8F3"/>
<path d="m4 4h-4v-3c0-.55.45-1 1-1h3v4z" fill="#106a90"/>
<path d="m16 4h-4v-4h3c.55 0 1 .45 1 1v3z" fill="#DCE8F3"/>
<path d="m12 4h4v4h-4v-4z" fill="#106a90"/>
<path d="M12,8V4H8v4H12z" fill="#DCE8F3"/>
<path d="m12 4h-4v-4h4v4z" fill="#106a90"/>
<path d="M8,12H4V8h4V12z" fill="#DCE8F3"/>
<path d="m4 12h4v4h-4v-4z" fill="#106a90"/>
<path d="m4 16v-4h-4v3c0 .55.45 1 1 1h3z" fill="#DCE8F3"/>
<path d="m4 12h-4v-4h4v4z" fill="#106a90"/>
<path d="m16 12h-4v-4h4v4z" fill="#DCE8F3"/>
<path d="m12 12h4v3c0 .55-.45 1-1 1h-3v-4z" fill="#106a90"/>
<path d="m12 16v-4h-4v4h4z" fill="#DCE8F3"/>
<path d="m12 12h-4v-4h4v4z" fill="#106a90"/>
</svg>

<?xml version="1.0" encoding="utf-8"?>
<!-- Generator: Adobe Illustrator 22.0.1, SVG Export Plug-In . SVG Version: 6.00 Build 0)  -->
<svg version="1.1" id="Layer_1" xmlns="http://www.w3.org/2000/svg" xmlns:xlink="http://www.w3.org/1999/xlink" x="0px" y="0px"
	 viewBox="0 0 16 16" enable-background="new 0 0 16 16" xml:space="preserve">
<path id="path3390_26_" fill="#DCE8F3" d="M8,4H4V0h4V4z"/>
<path id="path3384_45_" fill="#3498DB" d="M4,4h4v4H4V4L4,4z"/>
<path id="path3390-9_28_" fill="#DCE8F3" d="M4,8V4H0v4H4z"/>
<path id="path3384_44_" fill="#3498DB" d="M4,4H0V1c0-0.55,0.45-1,1-1h3V4L4,4z"/>
<path id="path3390_25_" fill="#DCE8F3" d="M16,4h-4V0h3c0.55,0,1,0.45,1,1V4z"/>
<path id="path3384_43_" fill="#3498DB" d="M12,4h4v4h-4V4L12,4z"/>
<path id="path3390-9_27_" fill="#DCE8F3" d="M12,8V4H8v4H12z"/>
<path id="path3384_42_" fill="#3498DB" d="M12,4H8V0h4V4L12,4z"/>
<path id="path3390_24_" fill="#DCE8F3" d="M8,12H4V8h4V12z"/>
<path id="path3384_41_" fill="#3498DB" d="M4,12h4v4H4V12L4,12z"/>
<path id="path3390-9_26_" fill="#DCE8F3" d="M4,16v-4H0v3c0,0.55,0.45,1,1,1H4z"/>
<path id="path3384_40_" fill="#3498DB" d="M4,12H0V8h4V12L4,12z"/>
<path id="path3390_23_" fill="#DCE8F3" d="M16,12h-4V8h4V12z"/>
<path id="path3384_39_" fill="#3498DB" d="M12,12h4v3c0,0.55-0.45,1-1,1h-3V12L12,12z"/>
<path id="path3390-9_25_" fill="#DCE8F3" d="M12,16v-4H8v4H12z"/>
<path id="path3384_38_" fill="#3498DB" d="M12,12H8V8h4V12L12,12z"/>
</svg>
